X:1
L:1/8
M:3/4
K:C
""C"" c2 BA GF |""C"" E2 CE G2 |""G7"" D2 B,D F2 |""C"" E2 CE G2 |""C"" c2 BA GF |""C"" E2 CE G2 | 
""G7"" D2 B,D FE |""C"" C6 |]""G7"" D2 B,D F2 |""C"" E2 CE G2 |""G7"" D2 B,D F2 |""C"" E2 CE G2 |""C"" c2 BA GF | 
""C"" E2 CE G2 |""G7"" D2 B,D FE |""C"" C6 |]
